X: 91
T: The Strayaway Child v.1
P: piffero primo a0722
O: Margaret Barry
%R: jig
F: http://ancients.sudburymuster.org/mus/sng/pdf/strayawayC0.pdf
Z: 2020 John Chambers <jc:trillian.mit.edu>
M: 6/8
L: 1/8
K: Am
d |:\
eAA cAA | eAA c2d | eAA cAA | BGB d3 |\
eAA cAA | eAA c2d | e2e e2d | cAG A3 :|
|:\
eaa ege | gec dcd | eaa egg | gec d3 |\
eaa ege | gec dcd | eee e2d |1 cAG A3 :|2 cAG A2 |]


